X: 6478
T: Cat In The Fiddle Case, The
R: barndance
M: 4/4
K: Gmajor
B2 B>A G>A (3BAG|A>BA>G (3EFE D>E|G2 G>A B<dd>G|B2 A2 A2 d>c|
B>cd>B G>AB>G|(3ABA G2 E2 (3DEF|G2 G>A B<dd>B|A2 G2 G2:|
g2 e>^d e>f (3gfe|d>ed>c B>^A (3Bcd|e>Gd>G c>GB>G|(3BcB A>^G A2 (3edc|
B>cd>B G2 (3BAG|E2 ^D2 =D2 (3DEF|G2 G>A B<dd>B|A2 G2 G2:|
|:>e d>c|~|A2 G2 G>:|
|:>F (3Bcd|~|A2 G2 G>:|

